dist/svg/feedback-dislike.svg

<!-- Generated by Trend Micro Style Portal -->
<svg version="1.1" xmlns="http://www.w3.org/2000/svg" width="16" height="16" viewBox="0 0 16 16">
  <title>feedback-dislike</title>
  <path fill="rgb(34,34,34)" d="M14.359 10.035h-4.052c0.426 1.075 0.679 2.319 0.693 3.62l0 0.006c0 1.631-0.275 2.338-1.038 2.338-1.051 0-1.178-0.991-1.291-1.731-0.126-0.764-0.36-1.449-0.691-2.077l0.018 0.037c-0.582-1.011-1.355-1.849-2.275-2.489l-0.025-0.016c-0.014-0.011-0.021-0.021-0.034-0.032-0.034-0.026-0.070-0.049-0.102-0.078-0.346-0.319-0.562-0.775-0.562-1.281 0-0.003 0-0.007 0-0.010v0.001-6.609c-0-0.010-0-0.023-0-0.035 0-0.914 0.731-1.657 1.639-1.678l0.002-0h6.214c1.313 0.025 2.382 1.035 2.501 2.32l0.001 0.010 0.633 5.798c0.009 0.066 0.014 0.142 0.014 0.22 0 0.917-0.731 1.663-1.643 1.687l-0.002 0zM3 9h-2c-0.552 0-1-0.448-1-1v0-7c0-0.552 0.448-1 1-1v0h2c0.552 0 1 0.448 1 1v0 7c0 0.552-0.448 1-1 1v0z"></path>
</svg>

<svg width="16" height="16" viewBox="0 0 16 16" fill="rgb(34, 34, 34)" xmlns="http://www.w3.org/2000/svg"><title>feedback-dislike</title><path d="M14.359 10.035H10.307C10.733 11.11 10.986 12.354 11 13.655V13.661C11 15.292 10.725 15.999 9.962 15.999C8.911 15.999 8.784 15.008 8.671 14.268C8.545 13.504 8.311 12.819 7.98 12.191L7.998 12.228C7.416 11.217 6.643 10.379 5.723 9.739L5.698 9.723C5.684 9.712 5.677 9.702 5.664 9.691C5.63 9.665 5.594 9.642 5.562 9.613C5.216 9.294 5 8.838 5 8.332C5 8.329 5 8.325 5 8.322V8.323V1.714C5 1.704 5 1.691 5 1.679C5 0.765 5.731 0.022 6.639 0.001H6.641H12.855C14.168 0.026 15.237 1.036 15.356 2.321L15.357 2.331L15.99 8.129C15.999 8.195 16.004 8.271 16.004 8.349C16.004 9.266 15.273 10.012 14.361 10.036H14.359V10.035ZM3 9H1C0.448 9 0 8.552 0 8V1C0 0.448 0.448 0 1 0H3C3.552 0 4 0.448 4 1V8C4 8.552 3.552 9 3 9Z" fill="rgb(34, 34, 34)" fill-opacity="1.00"/></svg>
